src/svg/acciones/accion-im.svg

<?xml version="1.0" encoding="UTF-8" standalone="no"?>
<!-- Generado por Andres Lacquaniti  -->

<svg
   xmlns:dc="http://purl.org/dc/elements/1.1/"
   xmlns:cc="http://creativecommons.org/ns#"
   xmlns:rdf="http://www.w3.org/1999/02/22-rdf-syntax-ns#"
   xmlns:svg="http://www.w3.org/2000/svg"
   xmlns="http://www.w3.org/2000/svg"
   xmlns:sodipodi="http://sodipodi.sourceforge.net/DTD/sodipodi-0.dtd"
   xmlns:inkscape="http://www.inkscape.org/namespaces/inkscape"
   version="1.1"
   id="Layer_1"
   x="0px"
   y="0px"
   width="15px"
   height="15px"
   viewBox="0 0 15 15"
   style="enable-background:new 0 0 15 15;"
   xml:space="preserve"
   sodipodi:docname="im.svg"
   inkscape:version="0.92.0 r15299"><metadata
     id="metadata9"><rdf:RDF><cc:Work
         rdf:about=""><dc:format>image/svg+xml</dc:format><dc:type
           rdf:resource="http://purl.org/dc/dcmitype/StillImage" /><dc:title></dc:title></cc:Work></rdf:RDF></metadata><defs
     id="defs7" /><sodipodi:namedview
     pagecolor="#ffffff"
     bordercolor="#666666"
     borderopacity="1"
     objecttolerance="10"
     gridtolerance="10"
     guidetolerance="10"
     inkscape:pageopacity="0"
     inkscape:pageshadow="2"
     inkscape:window-width="1169"
     inkscape:window-height="725"
     id="namedview5"
     showgrid="false"
     inkscape:zoom="15.733333"
     inkscape:cx="20.470281"
     inkscape:cy="7.4249715"
     inkscape:window-x="663"
     inkscape:window-y="83"
     inkscape:window-maximized="0"
     inkscape:current-layer="Layer_1" /><g
     style="clip-rule:evenodd;fill-rule:evenodd"
     transform="matrix(0.03011585,0,0,-0.03011585,-14.323265,-6.8330439)"
     id="g5219" /><path
     style="clip-rule:evenodd;fill:#000000;fill-rule:evenodd;stroke-width:0.07322078"
     d="M 9.0039062 -0.16015625 L 9.5078125 0.4453125 L 8.5488281 0.24414062 L 8.953125 0.79882812 L 9.40625 1.3535156 L 9.8613281 1.8574219 L 10.449219 2.8359375 L 10.128906 3.1113281 L 9.8769531 3.6152344 L 9.5742188 3.8164062 L 9.4726562 4.2207031 L 9.5546875 4.6992188 L 7.6347656 6.6601562 C 7.2289811 6.9833821 6.7641971 7.272061 6.40625 7.6503906 C 6.1672406 7.9029539 6.045333 8.2762115 5.8320312 8.5605469 L 5.5957031 8.9160156 L 5.4960938 9.1542969 L 5.2792969 9.6289062 L 4.0351562 10.753906 L 3.59375 10.496094 L 3.1621094 9.3730469 L 2.6992188 9.0332031 L 2.2890625 9.2832031 C 2.380276 9.1150684 2.6140184 9.1253294 2.7636719 8.9941406 C 2.6723348 9.0714654 2.0280856 8.3555857 1.9023438 8.3496094 C 1.8783517 8.3482394 1.8544805 8.3529151 1.8320312 8.3613281 C 1.6787538 8.4190641 1.5628435 8.6746686 1.484375 8.7871094 C 1.439364 8.8515654 1.2155356 9.0846989 1.2226562 9.1621094 C 1.2227442 9.1622558 1.2636719 9.609375 1.2636719 9.609375 L 0.78320312 9.828125 C 0.62349175 10.06865 0.37613924 10.333528 0.26953125 10.595703 C 0.13395565 10.92951 0.70349785 11.201754 0.93164062 11.353516 C 1.0667015 11.443336 1.2032874 11.532796 1.3378906 11.623047 C 1.5001185 11.732085 1.5782833 11.73179 1.7773438 11.738281 C 1.7706153 11.732963 1.7427946 11.682123 1.7304688 11.666016 L 1.8320312 11.785156 L 2.1230469 11.804688 L 2.1503906 12.044922 L 2.0703125 12.183594 L 1.9121094 12.5 L 2.0703125 12.916016 L 2.2890625 12.994141 L 2.3945312 12.986328 C 2.3925015 12.986475 2.2455592 13.348599 2.2285156 13.386719 C 2.1961446 13.459039 2.1734255 13.474184 2.1796875 13.554688 C 2.1903545 13.691864 2.2780629 13.909869 2.4609375 13.759766 C 2.56989 13.670256 2.5059909 13.584371 2.5292969 13.496094 L 2.7148438 13.25 L 2.7246094 13.171875 L 2.8046875 13.351562 L 2.9824219 13.490234 L 3.21875 13.529297 L 3.3984375 13.410156 L 3.4570312 13.271484 L 3.4765625 13.033203 L 3.4375 12.916016 L 3.5371094 12.796875 L 3.5097656 12.365234 L 3.6230469 12.449219 L 3.7324219 12.628906 L 3.7167969 12.623047 L 4.2753906 13.875 L 4.7792969 14.179688 L 5.6972656 14.847656 L 6.1210938 14.078125 L 6.3007812 13.828125 L 6.2675781 13.410156 L 6.671875 13.240234 L 7.2636719 12.306641 L 7.3574219 12.326172 L 5.9316406 11.310547 L 5.0839844 11.21875 L 4.6640625 11.015625 L 5.4296875 10.25 C 5.5589149 10.120686 5.7383637 9.989424 5.8417969 9.8378906 C 5.9368228 9.698512 5.9858156 9.5508548 6.078125 9.4042969 C 6.153191 9.2850495 6.2093474 9.154195 6.3046875 9.0527344 C 6.524251 8.8191008 6.6234658 8.5010893 6.8164062 8.2460938 C 7.0260754 7.9691073 7.2831355 7.7801397 7.5351562 7.5605469 C 7.7134269 7.4052105 7.8919562 7.2510399 8.0703125 7.0957031 L 9.515625 5.7089844 L 9.7929688 5.4121094 L 9.8261719 5.6328125 L 9.421875 6.6914062 L 9.3222656 7.6503906 L 9.3730469 8.5585938 L 9.421875 9.1132812 L 9.6738281 9.6171875 L 9.8261719 9.8183594 L 9.9765625 10.072266 L 9.9960938 10.101562 L 9.8925781 10.183594 L 8.6894531 10.214844 L 8.2617188 10.490234 C 8.2572313 10.468195 8.2589119 10.445028 8.25 10.423828 C 8.292437 10.529749 7.4012409 10.879994 7.3535156 10.990234 C 7.3442756 11.011194 7.3393867 11.033881 7.3398438 11.056641 C 7.3430137 11.211663 7.547283 11.396345 7.6269531 11.501953 C 7.6727361 11.562553 7.8172265 11.835358 7.8925781 11.853516 C 7.8926513 11.853516 8.328125 11.958984 8.328125 11.958984 L 8.3730469 12.455078 C 8.5463985 12.673727 8.712357 12.980247 8.9238281 13.158203 C 9.1931781 13.384802 9.6419938 12.962206 9.8613281 12.806641 C 9.9910988 12.714561 10.119858 12.620778 10.25 12.529297 C 10.40691 12.418972 10.43331 12.347486 10.505859 12.171875 L 10.519531 12.166016 L 10.783203 11.583984 L 10.833984 11.736328 L 10.884766 12.089844 L 11.390625 12.189453 L 11.994141 12.138672 L 12.248047 11.9375 L 12.853516 11.837891 L 12.953125 11.484375 L 12.802734 11.080078 L 12.5 11.130859 L 12.197266 10.828125 L 11.847656 10.755859 L 12.011719 10.722656 L 12.013672 10.720703 L 13.355469 10.621094 L 13.810547 10.267578 L 14.748047 9.6582031 L 14.164062 9.0371094 L 13.988281 8.7988281 L 13.582031 8.6972656 L 13.558594 8.28125 L 12.873047 7.4550781 L 12.595703 7.84375 L 12.873047 7.40625 L 11.439453 8.3574219 L 10.986328 9.2636719 L 10.580078 9.6210938 L 10.517578 9.5214844 L 10.179688 9.1132812 L 10.078125 8.4570312 L 9.9277344 7.7011719 L 10.078125 6.9941406 L 10.279297 6.2382812 L 10.533203 5.734375 L 10.683594 5.53125 L 10.986328 5.1777344 L 11.339844 4.7753906 L 11.591797 4.3203125 C 11.591797 4.3203125 11.591266 3.8678905 11.792969 3.96875 C 11.99466 4.0696094 11.642578 3.4140625 11.642578 3.4140625 L 11.238281 2.8085938 L 11.21875 2.8085938 L 10.919922 2.1601562 L 10.466797 1.3027344 L 10.0625 0.74804688 L 9.5585938 0.19335938 L 9.0039062 -0.16015625 z M 2.2792969 9.3144531 L 2.2714844 9.5078125 L 2.265625 9.53125 C 2.2563247 9.4940013 2.2426077 9.458359 2.2441406 9.4179688 C 2.2459154 9.3710533 2.2663489 9.3471399 2.2792969 9.3144531 z M 12.316406 10.318359 L 12.34375 10.320312 L 12.150391 10.539062 L 12.316406 10.318359 z M 12.560547 10.335938 L 12.738281 10.349609 L 12.697266 10.367188 L 12.560547 10.335938 z M 2.7363281 11.847656 L 2.8164062 11.853516 L 2.8183594 11.855469 L 2.7832031 11.886719 L 2.7363281 11.847656 z M 4.2714844 12.828125 L 4.3808594 13.242188 L 4.3066406 13.166016 L 4.2714844 12.828125 z "
     id="path4501" /></svg>

<svg width="15px" height="15px" enable-background="new 0 0 15 15" version="1.1" viewBox="0 0 15 15" xmlns="http://www.w3.org/2000/svg">
 <path d="m9.0039-0.16016 0.50391 0.60547-0.95898-0.20117 0.4043 0.55469 0.45312 0.55469 0.45508 0.50391 0.58789 0.97852-0.32031 0.27539-0.25195 0.50391-0.30273 0.20117-0.10156 0.4043 0.082031 0.47852-1.9199 1.9609c-0.40578 0.32323-0.87057 0.6119-1.2285 0.99023-0.23901 0.25256-0.36092 0.62582-0.57422 0.91016l-0.23633 0.35547-0.099609 0.23828-0.2168 0.47461-1.2441 1.125-0.44141-0.25781-0.43164-1.123-0.46289-0.33984-0.41016 0.25c0.091214-0.16813 0.32496-0.15787 0.47461-0.28906-0.091337 0.077325-0.73559-0.63855-0.86133-0.64453-0.023992-0.00137-0.047863 0.0033057-0.070313 0.011719-0.15328 0.057736-0.26919 0.31334-0.34766 0.42578-0.045011 0.064456-0.26884 0.29759-0.26172 0.375 8.8e-5 1.464e-4 0.041016 0.44727 0.041016 0.44727l-0.48047 0.21875c-0.15971 0.24052-0.40706 0.5054-0.51367 0.76758-0.13558 0.33381 0.43397 0.60605 0.66211 0.75781 0.13506 0.08982 0.27165 0.17928 0.40625 0.26953 0.16223 0.10904 0.24039 0.10874 0.43945 0.11523-0.0067285-0.005318-0.034549-0.056158-0.046875-0.072265l0.10156 0.11914 0.29102 0.019532 0.027344 0.24023-0.080078 0.13867-0.1582 0.31641 0.1582 0.41602 0.21875 0.078125 0.10547-0.007813c-0.0020297 1.47e-4 -0.14897 0.36227-0.16602 0.40039-0.032371 0.07232-0.05509 0.087465-0.048828 0.16797 0.010667 0.13718 0.098375 0.35518 0.28125 0.20508 0.10895-0.08951 0.045053-0.1754 0.068359-0.26367l0.18555-0.24609 0.0097656-0.078125 0.080078 0.17969 0.17773 0.13867 0.23633 0.039063 0.17969-0.11914 0.058594-0.13867 0.019531-0.23828-0.039062-0.11719 0.099609-0.11914-0.027344-0.43164 0.11328 0.083985 0.10938 0.17969-0.015625-0.005859 0.55859 1.252 0.50391 0.30469 0.91797 0.66797 0.42383-0.76953 0.17969-0.25-0.033203-0.41797 0.4043-0.16992 0.5918-0.93359 0.09375 0.019531-1.4258-1.0156-0.84766-0.091797-0.41992-0.20312 0.76562-0.76562c0.12923-0.12931 0.30868-0.26058 0.41211-0.41211 0.095026-0.13938 0.14402-0.28704 0.23633-0.43359 0.075066-0.11925 0.13122-0.2501 0.22656-0.35156 0.21956-0.23363 0.31878-0.55165 0.51172-0.80664 0.20967-0.27699 0.46673-0.46595 0.71875-0.68555 0.17827-0.15534 0.3568-0.30951 0.53516-0.46484l1.4453-1.3867 0.27734-0.29688 0.033203 0.2207-0.4043 1.0586-0.099609 0.95898 0.050781 0.9082 0.048828 0.55469 0.25195 0.50391 0.15234 0.20117 0.15039 0.25391 0.019531 0.029296-0.10352 0.082032-1.2031 0.03125-0.42773 0.27539c-0.0044875-0.022039-0.0028069-0.045206-0.011719-0.066406 0.042437 0.10592-0.84876 0.45617-0.89648 0.56641-0.00924 0.02096-0.014129 0.043647-0.013672 0.066407 0.0031699 0.15502 0.20744 0.3397 0.28711 0.44531 0.045783 0.0606 0.19027 0.3334 0.26562 0.35156 7.32e-5 0 0.43555 0.10547 0.43555 0.10547l0.044922 0.49609c0.17335 0.21865 0.33931 0.52517 0.55078 0.70312 0.26935 0.2266 0.71817-0.196 0.9375-0.35156 0.12977-0.09208 0.25853-0.18586 0.38867-0.27734 0.15691-0.11032 0.18331-0.18181 0.25586-0.35742l0.013672-0.005859 0.26367-0.58203 0.050781 0.15234 0.050782 0.35352 0.50586 0.099609 0.60352-0.050781 0.25391-0.20117 0.60547-0.099609 0.099609-0.35352-0.15039-0.4043-0.30273 0.050781-0.30273-0.30273-0.34961-0.072266 0.16406-0.033203 0.001953-0.001953 1.3418-0.099609 0.45508-0.35352 0.9375-0.60937-0.58398-0.62109-0.17578-0.23828-0.40625-0.10156-0.023437-0.41602-0.68555-0.82617-0.27734 0.38867 0.27734-0.4375-1.4336 0.95117-0.45312 0.90625-0.40625 0.35742-0.0625-0.099609-0.33789-0.4082-0.10156-0.65625-0.15039-0.75586 0.15039-0.70703 0.20117-0.75586 0.25391-0.50391 0.15039-0.20312 0.30273-0.35352 0.35352-0.40234 0.25195-0.45508s-5.31e-4 -0.45242 0.20117-0.35156c0.20169 0.10086-0.15039-0.55469-0.15039-0.55469l-0.4043-0.60547h-0.019531l-0.29883-0.64844-0.45312-0.85742-0.4043-0.55469-0.50391-0.55469-0.55469-0.35352zm-6.7246 9.4746-0.0078125 0.19336-0.0058594 0.023438c-0.0093003-0.037249-0.023017-0.072891-0.021484-0.11328 0.0017748-0.046916 0.022208-0.070829 0.035156-0.10352zm10.037 1.0039 0.027344 0.001953-0.19336 0.21875 0.16602-0.2207zm0.24414 0.017579 0.17773 0.013671-0.041015 0.017579-0.13672-0.03125zm-9.8242 1.5117 0.080078 0.00586 0.0019532 0.001953-0.035156 0.03125-0.046875-0.039063zm1.5352 0.98047 0.10938 0.41406-0.074219-0.076172-0.035156-0.33789z" clip-rule="evenodd" fill-rule="evenodd" stroke-width=".073221"/>
</svg>
